img/partners/c-bank.svg

<svg width="371" height="93" viewBox="0 0 371 93" fill="none" xmlns="http://www.w3.org/2000/svg">
<path d="M23.2953 60.818C15.479 60.818 9.11134 54.5126 9.11134 46.7712C9.11134 39.0299 15.4772 32.7227 23.2916 32.7227H24.1796V24.1797H23.2934C10.7264 24.1797 0.492188 34.3185 0.492188 46.7694C0.492188 59.3021 10.7264 69.4409 23.2953 69.4409H24.1814V60.8217H23.2953V60.818Z" fill="#9AACDE"/>
<path fill-rule="evenodd" clip-rule="evenodd" d="M27.8868 36.398V24.6641C38.363 26.7384 46.1777 35.8386 46.1777 46.7734C46.1777 57.7917 38.3594 66.8882 27.8868 68.8863V57.1523H23.293C17.4932 57.1523 12.8203 52.5205 12.8203 46.777C12.8203 41.0299 17.4932 36.398 23.2952 36.398H27.8868ZM71.8817 56.9888C74.2569 56.9961 76.5599 56.1787 78.4063 54.6747L82.0323 58.2712C79.3738 60.6616 75.8292 62.1002 71.8817 62.1002C63.3399 62.1002 56.4913 55.1543 56.4913 46.7734C56.4913 38.3925 63.3399 31.5264 71.8817 31.5264C75.7185 31.5155 79.4221 32.9396 82.2748 35.5189L78.6489 39.1081C76.7786 37.4552 74.3717 36.547 71.8817 36.5579C66.1578 36.5579 61.5675 41.1062 61.5675 46.7734C61.5675 52.4405 66.1596 56.9888 71.8817 56.9888ZM231.019 46.2938L242.379 32.7253H246.891V60.8214H242.379V40.5467L231.019 53.7956L219.497 40.227V60.8251H214.903V32.7253H219.497V32.8851L219.576 32.7253L231.019 46.2938ZM101.049 62.0203C109.509 62.0203 116.439 55.2342 116.439 46.7734C116.439 38.3925 109.509 31.5264 101.049 31.5264C92.5885 31.5264 85.6605 38.3925 85.6605 46.7734C85.6605 55.1543 92.509 62.0203 101.049 62.0203ZM100.969 36.5579C106.691 36.5579 111.283 41.1062 111.283 46.7734C111.283 52.4405 106.691 56.9888 100.969 56.9888C95.2469 56.9888 90.6554 52.4405 90.6554 46.7734C90.6554 41.1062 95.2469 36.5579 100.969 36.5579ZM194.84 62.0203C203.3 62.0203 210.23 55.2342 210.23 46.7734C210.23 38.3925 203.379 31.5264 194.84 31.5264C186.38 31.5264 179.45 38.3925 179.45 46.7734C179.45 55.1543 186.298 62.0203 194.84 62.0203ZM194.84 36.5579C200.562 36.5579 205.153 41.1062 205.153 46.7734C205.153 52.4405 200.479 56.9888 194.84 56.9888C189.118 56.9888 184.526 52.4405 184.526 46.7734C184.526 41.1062 189.118 36.5579 194.84 36.5579ZM173.163 32.7253H179.37L165.349 46.8533L179.207 60.8251H173.084L161.399 49.0875H156.728V60.8251H152.216V32.7253H156.728V44.5392H161.482L173.163 32.7253ZM364.372 32.7253H370.492L356.552 46.8533L370.331 60.8251H364.207L352.606 49.0875H347.851V60.8251H343.339V32.7253H347.851V44.5392H352.606L364.372 32.7253ZM308.774 60.8214H303.775L301.039 54.7583H286.372L283.634 60.8251H278.639L291.127 32.7253H296.283L308.774 60.8214ZM293.706 38.4724L288.389 50.2863H299.025L293.706 38.4724ZM143.835 46.7734C145.478 48.2919 146.414 50.4352 146.414 52.6803C146.414 57.1487 142.788 60.8251 138.274 60.905H121.678V32.7253H138.274C142.757 32.718 146.399 36.3617 146.414 40.8664C146.414 43.1805 145.365 45.2585 143.835 46.7734ZM138.195 37.2772H126.27V44.4556H138.195C140.209 44.4556 141.819 42.8608 141.819 40.8664C141.819 38.8684 140.209 37.2772 138.195 37.2772ZM126.27 56.3531H138.195C140.211 56.3531 141.821 54.6747 141.9 52.6839C141.9 51.7358 141.506 50.8457 140.862 50.1882C140.206 49.5198 139.291 49.0911 138.274 49.0911H126.27V56.3531ZM333.107 44.5392V32.8052H337.7V60.7415H333.107V49.0838H316.59V60.7415H311.999V32.8052H316.59V44.5392H333.107ZM268.806 44.5392C273.319 44.5392 277.026 48.2083 277.026 52.6803C277.026 57.1487 273.321 60.8251 268.805 60.9014H252.288V32.7253H274.286V37.2736H256.882V44.5392H268.806ZM256.883 56.3531H268.809C270.823 56.3531 272.435 54.6747 272.435 52.6839C272.435 50.7658 270.823 49.0911 268.809 49.0911H256.883V56.3531Z" fill="#253256"/>
</svg>

<svg width="371" height="93" fill="none" xmlns="http://www.w3.org/2000/svg"><path d="M23.295 60.818c-7.816 0-14.184-6.305-14.184-14.047 0-7.741 6.366-14.048 14.18-14.048h.889V24.18h-.887c-12.567 0-22.8 10.139-22.8 22.59 0 12.532 10.233 22.67 22.802 22.67h.886v-8.618h-.886v-.004z" fill="#9AACDE"/><path fill-rule="evenodd" clip-rule="evenodd" d="M27.887 36.398V24.664c10.476 2.074 18.29 11.175 18.29 22.11 0 11.018-7.818 20.114-18.29 22.112V57.152h-4.594c-5.8 0-10.473-4.632-10.473-10.375 0-5.747 4.673-10.379 10.475-10.379h4.592zm43.995 20.59c2.375.008 4.678-.81 6.524-2.313l3.626 3.596c-2.658 2.39-6.203 3.83-10.15 3.83-8.542 0-15.39-6.947-15.39-15.328 0-8.38 6.848-15.247 15.39-15.247a15.432 15.432 0 0110.393 3.993l-3.626 3.59a10.152 10.152 0 00-6.767-2.551c-5.724 0-10.315 4.548-10.315 10.215S66.16 56.99 71.883 56.99zm159.137-10.694l11.36-13.569h4.512v28.096h-4.512V40.547l-11.36 13.249-11.522-13.569v20.598h-4.594v-28.1h4.594v.16l.079-.16 11.443 13.569zM101.049 62.02c8.46 0 15.39-6.786 15.39-15.247 0-8.38-6.93-15.247-15.39-15.247S85.66 38.392 85.66 46.773s6.85 15.247 15.39 15.247zm-.08-25.462c5.722 0 10.314 4.548 10.314 10.215s-4.592 10.216-10.314 10.216-10.314-4.548-10.314-10.216c0-5.667 4.592-10.215 10.314-10.215zM194.84 62.02c8.46 0 15.39-6.786 15.39-15.247 0-8.38-6.851-15.247-15.39-15.247-8.46 0-15.39 6.866-15.39 15.247s6.848 15.247 15.39 15.247zm0-25.462c5.722 0 10.313 4.548 10.313 10.215S200.479 56.99 194.84 56.99c-5.722 0-10.314-4.548-10.314-10.216 0-5.667 4.592-10.215 10.314-10.215zm-21.677-3.833h6.207l-14.021 14.128 13.858 13.972h-6.123l-11.685-11.738h-4.671v11.738h-4.512v-28.1h4.512V44.54h4.754l11.681-11.814zm191.209 0h6.12l-13.94 14.128 13.779 13.972h-6.124l-11.601-11.738h-4.755v11.738h-4.512v-28.1h4.512V44.54h4.755l11.766-11.814zm-55.598 28.096h-4.999l-2.736-6.063h-14.667l-2.738 6.067h-4.995l12.488-28.1h5.156l12.491 28.096zm-15.068-22.349l-5.317 11.814h10.636l-5.319-11.814zm-149.871 8.301a8.045 8.045 0 012.579 5.907c0 4.469-3.626 8.145-8.14 8.225h-16.596v-28.18h16.596c4.483-.007 8.125 3.637 8.14 8.141 0 2.315-1.049 4.392-2.579 5.907zm-5.64-9.496H126.27v7.179h11.925c2.014 0 3.624-1.595 3.624-3.59 0-1.998-1.61-3.589-3.624-3.589zM126.27 56.353h11.925c2.016 0 3.626-1.678 3.705-3.67a3.58 3.58 0 00-1.038-2.495 3.623 3.623 0 00-2.588-1.097H126.27v7.262zM333.107 44.54V32.805h4.593v27.937h-4.593V49.084H316.59V60.74h-4.591V32.806h4.591V44.54h16.517zm-64.301 0c4.513 0 8.22 3.67 8.22 8.141 0 4.469-3.705 8.145-8.221 8.221h-16.517V32.725h21.998v4.549h-17.404v7.265h11.924zm-11.923 11.814h11.926c2.014 0 3.626-1.678 3.626-3.67 0-1.917-1.612-3.592-3.626-3.592h-11.926v7.262z" fill="#253256"/></svg>
